src/next/cmd/lc_diagramaxisx.svg

<svg height="24" width="24" xmlns="http://www.w3.org/2000/svg" xmlns:xlink="http://www.w3.org/1999/xlink"><linearGradient id="a"><stop offset="0" stop-color="#fbaeff"/><stop offset="1" stop-color="#ffd7d7"/></linearGradient><linearGradient id="b"><stop offset="0" stop-color="#fff"/><stop offset="1" stop-color="#fff" stop-opacity="0"/></linearGradient><linearGradient id="c"><stop offset="0" stop-color="#b900c4"/><stop offset="1" stop-color="#ae4300"/></linearGradient><linearGradient id="d" gradientTransform="matrix(1.136603 0 0 .99691887 25.560035 -15.610238)" gradientUnits="userSpaceOnUse" x1="35.803963" x2="35.803963" xlink:href="#c" y1="116.09032" y2="27.999783"/><linearGradient id="e" gradientTransform="matrix(.86538572 0 0 .91667 35.570909 -9.511252)" gradientUnits="userSpaceOnUse" x1="48" x2="47.9986" xlink:href="#a" y1="88" y2="21.335606"/><linearGradient id="f" gradientTransform="matrix(.86538572 0 0 .93713356 39.032452 -17.257657)" gradientUnits="userSpaceOnUse" x1="9.269053" x2="40" xlink:href="#b" y1="30.772436" y2="84"/><linearGradient id="g" gradientTransform="matrix(1.136603 0 0 .99691887 -1.106353 -15.610238)" gradientUnits="userSpaceOnUse" x1="35.803963" x2="35.803963" xlink:href="#c" y1="116.09032" y2="27.999783"/><linearGradient id="h" gradientTransform="matrix(.86538572 0 0 .91667 8.90452 -9.511252)" gradientUnits="userSpaceOnUse" x1="48" x2="47.9986" xlink:href="#a" y1="88" y2="21.335606"/><linearGradient id="i" gradientTransform="matrix(.86538572 0 0 .91667 12.423355 10.524313)" gradientUnits="userSpaceOnUse" x1="9.269053" x2="40" xlink:href="#b" y1="30.772436" y2="84"/><linearGradient id="j" gradientTransform="matrix(1.136603 0 0 .99691887 52.051157 -15.062619)" gradientUnits="userSpaceOnUse" x1="35.803963" x2="35.803963" xlink:href="#c" y1="116.09032" y2="27.999783"/><linearGradient id="k" gradientTransform="matrix(.86538572 0 0 .91667 62.06203 -8.963634)" gradientUnits="userSpaceOnUse" x1="48" x2="47.9986" xlink:href="#a" y1="88" y2="21.335606"/><linearGradient id="l" gradientTransform="matrix(.86538572 0 0 .91667 65.580865 4.199217)" gradientUnits="userSpaceOnUse" x1="9.269053" x2="40" xlink:href="#b" y1="30.772436" y2="84"/><g transform="matrix(.1875 0 0 .1875 .000007 -.00001)"><path d="m26.666228 5.3347735v10.6665555 85.332441h-5.333278v-85.332441-10.6665555z" fill="#797979"/><path d="m122.66523 101.33377h-11.294-84.705002v-5.333275h84.705002 11.294z" fill="#797979"/><rect fill="url(#d)" height="74.71006" rx="4.288369" ry="3.761345" width="21.45108" x="58.665894" y="21.334606"/><rect fill="url(#e)" height="64.043518" rx="1.5298" ry="1.620459" width="10.801393" x="63.999172" y="26.667885"/><path d="m65.529211 26.667884c-.847509 0-1.530767.722552-1.530767 1.620286v26.279067c4.120153-1.562607 8.282209-3.888419 10.785195-6.810571v-19.579499c0-.08587-.01157-.168182-.02327-.250652-.154604-.722104-.759779-1.258631-1.489589-1.258631z" fill="url(#f)"/><rect fill="url(#g)" height="48.043671" rx="4.288369" ry="3.761345" width="21.45108" x="31.999506" y="48.000996"/><rect fill="url(#h)" height="37.377129" rx="1.5298" ry="1.620459" width="10.801393" x="37.332783" y="53.334274"/><path d="m38.863424 53.333448c-.847509 0-1.530767.724342-1.530767 1.622076v25.845798c4.117412-1.520629 8.282717-3.787774 10.801309-6.638697v-19.207101c0-.897734-.681468-1.622076-1.528977-1.622076z" fill="url(#i)"/><rect fill="url(#j)" height="53.332302" rx="4.288369" ry="3.761345" width="21.334316" x="85.332283" y="42.667717"/><rect fill="url(#k)" height="42.665695" rx="1.5298" ry="1.620459" width="10.667712" x="90.665558" y="48.000996"/><path d="m92.194997 48.001723c-.847507 0-1.528975.722552-1.528975 1.620286v24.789478c4.060836-1.520722 8.143226-3.764795 10.625848-6.576034v-18.213444c0-.897734-.68325-1.620286-1.530761-1.620286z" fill="url(#l)"/><path d="m112.14814-122.66523h10.518746v101.33228h-10.518746z" fill="#1975ff" opacity=".99" transform="rotate(90)"/></g></svg>

<?xml version="1.0" encoding="UTF-8" standalone="no"?>
<!-- Created with Inkscape (http://www.inkscape.org/) -->

<svg
   xmlns:dc="http://purl.org/dc/elements/1.1/"
   xmlns:cc="http://creativecommons.org/ns#"
   xmlns:rdf="http://www.w3.org/1999/02/22-rdf-syntax-ns#"
   xmlns:svg="http://www.w3.org/2000/svg"
   xmlns="http://www.w3.org/2000/svg"
   xmlns:xlink="http://www.w3.org/1999/xlink"
   xmlns:sodipodi="http://sodipodi.sourceforge.net/DTD/sodipodi-0.dtd"
   xmlns:inkscape="http://www.inkscape.org/namespaces/inkscape"
   width="24"
   height="24"
   id="svg3408"
   sodipodi:version="0.32"
   inkscape:version="0.92.4 (unknown)"
   version="1.0"
   sodipodi:docname="lc_diagramaxisx.svg"
   inkscape:output_extension="org.inkscape.output.svgz.inkscape"
   inkscape:export-filename="/home/rizmut/Dokumen/Rizmut/Github/libreoffice-style-karasa-jaga/build/next/cmd/lc_diagramaxisx.png"
   inkscape:export-xdpi="18"
   inkscape:export-ydpi="18">
  <defs
     id="defs3410">
    <linearGradient
       id="linearGradient3201">
      <stop
         id="stop3203"
         offset="0"
         style="stop-color:#fbaeff;stop-opacity:1;" />
      <stop
         id="stop3205"
         offset="1"
         style="stop-color:#ffd7d7;stop-opacity:1;" />
    </linearGradient>
    <linearGradient
       inkscape:collect="always"
       xlink:href="#linearGradient3201"
       id="linearGradient3189"
       x1="66.06562"
       y1="92.045761"
       x2="66.06562"
       y2="43.634895"
       gradientUnits="userSpaceOnUse"
       gradientTransform="translate(-4)" />
    <linearGradient
       id="linearGradient3195">
      <stop
         id="stop3197"
         offset="0"
         style="stop-color:#99c2fc;stop-opacity:1;" />
      <stop
         id="stop3199"
         offset="1"
         style="stop-color:#dceafe;stop-opacity:1;" />
    </linearGradient>
    <linearGradient
       inkscape:collect="always"
       xlink:href="#linearGradient3195"
       id="linearGradient3193"
       gradientUnits="userSpaceOnUse"
       x1="68"
       y1="112"
       x2="68"
       y2="80"
       gradientTransform="translate(-4)" />
    <linearGradient
       inkscape:collect="always"
       id="linearGradient3228">
      <stop
         style="stop-color:#ffffff;stop-opacity:1;"
         offset="0"
         id="stop3230" />
      <stop
         style="stop-color:#ffffff;stop-opacity:0;"
         offset="1"
         id="stop3232" />
    </linearGradient>
    <linearGradient
       inkscape:collect="always"
       xlink:href="#linearGradient3228"
       id="linearGradient3234"
       x1="84"
       y1="60"
       x2="110"
       y2="105.03332"
       gradientUnits="userSpaceOnUse"
       gradientTransform="translate(-4)" />
    <linearGradient
       inkscape:collect="always"
       id="linearGradient3220">
      <stop
         style="stop-color:#ffffff;stop-opacity:1;"
         offset="0"
         id="stop3222" />
      <stop
         style="stop-color:#ffffff;stop-opacity:0;"
         offset="1"
         id="stop3224" />
    </linearGradient>
    <linearGradient
       inkscape:collect="always"
       xlink:href="#linearGradient3220"
       id="linearGradient3226"
       x1="92.704826"
       y1="8.8034716"
       x2="120"
       y2="76"
       gradientUnits="userSpaceOnUse"
       gradientTransform="translate(-4)" />
    <linearGradient
       id="linearGradient6310">
      <stop
         style="stop-color:#b900c4;stop-opacity:1;"
         offset="0"
         id="stop6312" />
      <stop
         style="stop-color:#ae4300;stop-opacity:1;"
         offset="1"
         id="stop6314" />
    </linearGradient>
    <linearGradient
       inkscape:collect="always"
       xlink:href="#linearGradient6310"
       id="linearGradient3772"
       gradientUnits="userSpaceOnUse"
       x1="32"
       y1="88.468971"
       x2="54.051708"
       y2="6.1708703"
       gradientTransform="translate(-4)" />
    <linearGradient
       id="linearGradient3051">
      <stop
         style="stop-color:#0968ef;stop-opacity:1;"
         offset="0"
         id="stop3053" />
      <stop
         style="stop-color:#aecffc;stop-opacity:1;"
         offset="1"
         id="stop3055" />
    </linearGradient>
    <linearGradient
       inkscape:collect="always"
       xlink:href="#linearGradient3051"
       id="linearGradient3768"
       x1="23.5"
       y1="64"
       x2="140.19827"
       y2="32.730793"
       gradientUnits="userSpaceOnUse"
       gradientTransform="translate(-4)" />
    <linearGradient
       id="linearGradient3051-4">
      <stop
         style="stop-color:#0968ef;stop-opacity:1;"
         offset="0"
         id="stop3053-8" />
      <stop
         style="stop-color:#aecffc;stop-opacity:1;"
         offset="1"
         id="stop3055-7" />
    </linearGradient>
    <radialGradient
       r="9.3331003"
       fy="28.963078"
       fx="78.720047"
       cy="25.335899"
       cx="78.664696"
       gradientTransform="matrix(3.508002,1.9066247e-7,-2.952602e-7,3.5080019,-197.95592,-66.878401)"
       gradientUnits="userSpaceOnUse"
       id="radialGradient3914"
       xlink:href="#linearGradient3845"
       inkscape:collect="always" />
    <linearGradient
       inkscape:collect="always"
       id="linearGradient3845">
      <stop
         style="stop-color:#ffffff;stop-opacity:1;"
         offset="0"
         id="stop3847" />
      <stop
         style="stop-color:#ffffff;stop-opacity:0;"
         offset="1"
         id="stop3849" />
    </linearGradient>
    <linearGradient
       inkscape:collect="always"
       xlink:href="#linearGradient6310"
       id="linearGradient4435"
       gradientUnits="userSpaceOnUse"
       gradientTransform="matrix(1.136603,0,0,0.99691887,25.560035,-15.610238)"
       x1="35.803963"
       y1="116.09032"
       x2="35.803963"
       y2="27.999783" />
    <linearGradient
       y2="60"
       x2="47.998501"
       y1="60"
       x1="3.9985001"
       gradientUnits="userSpaceOnUse"
       id="linearGradient3003">
      <stop
         id="stop3005"
         style="stop-color:#245795;stop-opacity:1;"
         offset="0" />
      <stop
         id="stop3007"
         style="stop-color:#afd4ff;stop-opacity:1;"
         offset="1" />
    </linearGradient>
    <linearGradient
       inkscape:collect="always"
       xlink:href="#linearGradient3201"
       id="linearGradient4437"
       gradientUnits="userSpaceOnUse"
       gradientTransform="matrix(0.86538572,0,0,0.91667,35.570909,-9.5112517)"
       x1="48"
       y1="88"
       x2="47.9986"
       y2="21.335606" />
    <linearGradient
       id="linearGradient3009">
      <stop
         id="stop3011"
         offset="0"
         style="stop-color:#9fbde2;stop-opacity:1;" />
      <stop
         id="stop3013"
         offset="1"
         style="stop-color:#ffffff;stop-opacity:1;" />
    </linearGradient>
    <linearGradient
       inkscape:collect="always"
       xlink:href="#linearGradient3228"
       id="linearGradient4439"
       gradientUnits="userSpaceOnUse"
       x1="9.2690525"
       y1="30.772436"
       x2="40"
       y2="84"
       gradientTransform="matrix(0.86538572,0,0,0.93713356,39.032452,-17.257657)" />
    <linearGradient
       inkscape:collect="always"
       xlink:href="#linearGradient6310"
       id="linearGradient908"
       gradientUnits="userSpaceOnUse"
       gradientTransform="matrix(1.136603,0,0,0.99691887,-1.1063532,-15.610238)"
       x1="35.803963"
       y1="116.09032"
       x2="35.803963"
       y2="27.999783" />
    <linearGradient
       inkscape:collect="always"
       xlink:href="#linearGradient3201"
       id="linearGradient910"
       gradientUnits="userSpaceOnUse"
       gradientTransform="matrix(0.86538572,0,0,0.91667,8.9045201,-9.5112517)"
       x1="48"
       y1="88"
       x2="47.9986"
       y2="21.335606" />
    <linearGradient
       inkscape:collect="always"
       xlink:href="#linearGradient3228"
       id="linearGradient912"
       gradientUnits="userSpaceOnUse"
       gradientTransform="matrix(0.86538572,0,0,0.91667,12.423355,10.524313)"
       x1="9.2690525"
       y1="30.772436"
       x2="40"
       y2="84" />
    <linearGradient
       inkscape:collect="always"
       xlink:href="#linearGradient6310"
       id="linearGradient920"
       gradientUnits="userSpaceOnUse"
       gradientTransform="matrix(1.136603,0,0,0.99691887,52.051157,-15.062619)"
       x1="35.803963"
       y1="116.09032"
       x2="35.803963"
       y2="27.999783" />
    <linearGradient
       inkscape:collect="always"
       xlink:href="#linearGradient3201"
       id="linearGradient922"
       gradientUnits="userSpaceOnUse"
       gradientTransform="matrix(0.86538572,0,0,0.91667,62.06203,-8.963634)"
       x1="48"
       y1="88"
       x2="47.9986"
       y2="21.335606" />
    <linearGradient
       inkscape:collect="always"
       xlink:href="#linearGradient3228"
       id="linearGradient924"
       gradientUnits="userSpaceOnUse"
       gradientTransform="matrix(0.86538572,0,0,0.91667,65.580865,4.1992171)"
       x1="9.2690525"
       y1="30.772436"
       x2="40"
       y2="84" />
  </defs>
  <sodipodi:namedview
     id="base"
     pagecolor="#ffffff"
     bordercolor="#666666"
     borderopacity="1.0"
     inkscape:pageopacity="0.0"
     inkscape:pageshadow="2"
     inkscape:zoom="5.6568542"
     inkscape:cx="7.3156429"
     inkscape:cy="11.936033"
     inkscape:document-units="px"
     inkscape:current-layer="g889"
     height="128px"
     width="128px"
     showborder="true"
     inkscape:showpageshadow="false"
     showgrid="true"
     inkscape:window-width="1366"
     inkscape:window-height="714"
     inkscape:window-x="0"
     inkscape:window-y="28"
     showguides="true"
     inkscape:guide-bbox="true"
     objecttolerance="8"
     gridtolerance="9"
     guidetolerance="10"
     inkscape:window-maximized="1">
    <inkscape:grid
       id="GridFromPre046Settings"
       type="xygrid"
       originx="0"
       originy="0"
       spacingx="0.5"
       spacingy="0.5"
       color="#0000ff"
       empcolor="#0000ff"
       opacity="0.2"
       empopacity="0.4"
       empspacing="2"
       enabled="true"
       visible="true" />
  </sodipodi:namedview>
  <metadata
     id="metadata3413">
    <rdf:RDF>
      <cc:Work
         rdf:about="">
        <dc:format>image/svg+xml</dc:format>
        <dc:type
           rdf:resource="http://purl.org/dc/dcmitype/StillImage" />
        <dc:title></dc:title>
      </cc:Work>
    </rdf:RDF>
  </metadata>
  <g
     inkscape:label="Livello 1"
     inkscape:groupmode="layer"
     id="layer1"
     transform="translate(0,-104)">
    <g
       id="g889"
       transform="matrix(0.1875,0,0,0.1875,7.1525574e-6,103.99999)">
      <path
         inkscape:connector-curvature="0"
         sodipodi:nodetypes="ccccccc"
         id="path3447"
         d="M 26.666228,5.3347735 V 16.001329 101.33377 H 21.33295 V 16.001329 5.3347735 Z"
         style="opacity:1;fill:#797979;fill-opacity:1;stroke:none;stroke-width:0.91667002;stroke-linecap:round;stroke-linejoin:round;stroke-miterlimit:4;stroke-dasharray:none;stroke-dashoffset:0;stroke-opacity:1" />
      <path
         inkscape:connector-curvature="0"
         style="opacity:1;fill:#797979;fill-opacity:1;stroke:none;stroke-width:0.94324559;stroke-linecap:round;stroke-linejoin:round;stroke-miterlimit:4;stroke-dasharray:none;stroke-dashoffset:0;stroke-opacity:1"
         d="m 122.66523,101.33377 h -11.294 -84.705002 v -5.333275 h 84.705002 11.294 z"
         id="path3693"
         sodipodi:nodetypes="ccccccc" />
      <rect
         style="opacity:1;fill:url(#linearGradient4435);fill-opacity:1;stroke:none;stroke-width:6.06749058;stroke-linecap:square;stroke-linejoin:miter;stroke-miterlimit:4;stroke-dasharray:none;stroke-dashoffset:0;stroke-opacity:1"
         id="rect4429"
         width="21.45108"
         height="74.71006"
         x="58.665894"
         y="21.334606"
         ry="3.7613454"
         rx="4.2883692" />
      <rect
         rx="1.5298002"
         ry="1.6204588"
         y="26.667885"
         x="63.999172"
         height="64.043518"
         width="10.801393"
         id="rect4431"
         style="opacity:1;fill:url(#linearGradient4437);fill-opacity:1;stroke:none;stroke-width:5.07675505;stroke-linecap:square;stroke-linejoin:miter;stroke-miterlimit:4;stroke-dasharray:none;stroke-dashoffset:0;stroke-opacity:1" />
      <path
         inkscape:connector-curvature="0"
         id="path4433"
         d="m 65.529211,26.667884 c -0.847509,0 -1.530767,0.722552 -1.530767,1.620286 v 26.279067 c 4.120153,-1.562607 8.282209,-3.888419 10.785195,-6.810571 V 28.177167 c 0,-0.08587 -0.01157,-0.168182 -0.02327,-0.250652 -0.154604,-0.722104 -0.759779,-1.258631 -1.489589,-1.258631 z"
         style="opacity:1;fill:url(#linearGradient4439);fill-opacity:1;stroke:none;stroke-width:5.13310862;stroke-linecap:square;stroke-linejoin:miter;stroke-miterlimit:4;stroke-dasharray:none;stroke-dashoffset:0;stroke-opacity:1" />
      <rect
         rx="4.2883692"
         ry="3.7613454"
         y="48.000996"
         x="31.999506"
         height="48.043671"
         width="21.45108"
         id="rect902"
         style="opacity:1;fill:url(#linearGradient908);fill-opacity:1;stroke:none;stroke-width:6.06749058;stroke-linecap:square;stroke-linejoin:miter;stroke-miterlimit:4;stroke-dasharray:none;stroke-dashoffset:0;stroke-opacity:1" />
      <rect
         style="opacity:1;fill:url(#linearGradient910);fill-opacity:1;stroke:none;stroke-width:5.07675505;stroke-linecap:square;stroke-linejoin:miter;stroke-miterlimit:4;stroke-dasharray:none;stroke-dashoffset:0;stroke-opacity:1"
         id="rect904"
         width="10.801393"
         height="37.377129"
         x="37.332783"
         y="53.334274"
         ry="1.6204588"
         rx="1.5298002" />
      <path
         inkscape:connector-curvature="0"
         id="path906"
         d="m 38.863424,53.333448 c -0.847509,0 -1.530767,0.724342 -1.530767,1.622076 v 25.845798 c 4.117412,-1.520629 8.282717,-3.787774 10.801309,-6.638697 V 54.955524 c 0,-0.897734 -0.681468,-1.622076 -1.528977,-1.622076 z"
         style="opacity:1;fill:url(#linearGradient912);fill-opacity:1;stroke:none;stroke-width:5.07675505;stroke-linecap:square;stroke-linejoin:miter;stroke-miterlimit:4;stroke-dasharray:none;stroke-dashoffset:0;stroke-opacity:1" />
      <rect
         style="opacity:1;fill:url(#linearGradient920);fill-opacity:1;stroke:none;stroke-width:6.06749058;stroke-linecap:square;stroke-linejoin:miter;stroke-miterlimit:4;stroke-dasharray:none;stroke-dashoffset:0;stroke-opacity:1"
         id="rect914"
         width="21.334316"
         height="53.332302"
         x="85.332283"
         y="42.667717"
         ry="3.7613454"
         rx="4.2883692" />
      <rect
         rx="1.5298002"
         ry="1.6204588"
         y="48.000996"
         x="90.665558"
         height="42.665695"
         width="10.667712"
         id="rect916"
         style="opacity:1;fill:url(#linearGradient922);fill-opacity:1;stroke:none;stroke-width:5.07675505;stroke-linecap:square;stroke-linejoin:miter;stroke-miterlimit:4;stroke-dasharray:none;stroke-dashoffset:0;stroke-opacity:1" />
      <path
         inkscape:connector-curvature="0"
         id="path918"
         d="m 92.194997,48.001723 c -0.847507,0 -1.528975,0.722552 -1.528975,1.620286 v 24.789478 c 4.060836,-1.520722 8.143226,-3.764795 10.625848,-6.576034 V 49.622009 c 0,-0.897734 -0.68325,-1.620286 -1.530761,-1.620286 z"
         style="opacity:1;fill:url(#linearGradient924);fill-opacity:1;stroke:none;stroke-width:5.07675505;stroke-linecap:square;stroke-linejoin:miter;stroke-miterlimit:4;stroke-dasharray:none;stroke-dashoffset:0;stroke-opacity:1" />
      <rect
         transform="rotate(90)"
         y="-122.66523"
         x="112.14814"
         height="101.33228"
         width="10.518746"
         id="rect937"
         style="opacity:0.98999999;fill:#1975ff;fill-opacity:1;stroke:none;stroke-width:5.14941502;stroke-linecap:square;stroke-linejoin:round;stroke-miterlimit:4;stroke-dasharray:none;stroke-dashoffset:0;stroke-opacity:1" />
    </g>
  </g>
</svg>
